X:3769
T:Long Slender Sally
O:england
R:reel
S:Paddy O'Neill
D:Cathal McConnell: On Lough Erne Shore
M:C|
K:Amix
eA~A2 eAdA|eAfA gAfA|eA~A2 ed (3Bcd|BAGB d2 (3Bcd|
eA~A2 eAdA|(3efg fa ~g3a|bzaf gfed|BAGB d2 (3Bcd:|
|:e2E2 A2GB|A2 (3Bcd edBd|agec d2cd|BAGB d2 (3Bcd:|


